images_elementary_svg/cmd/lc_autocontrolfocus.svg

<?xml version="1.0" encoding="UTF-8" standalone="no"?>
<svg
   xmlns:dc="http://purl.org/dc/elements/1.1/"
   xmlns:cc="http://creativecommons.org/ns#"
   xmlns:rdf="http://www.w3.org/1999/02/22-rdf-syntax-ns#"
   xmlns:svg="http://www.w3.org/2000/svg"
   xmlns="http://www.w3.org/2000/svg"
   xmlns:xlink="http://www.w3.org/1999/xlink"
   xmlns:sodipodi="http://sodipodi.sourceforge.net/DTD/sodipodi-0.dtd"
   xmlns:inkscape="http://www.inkscape.org/namespaces/inkscape"
   viewBox="0 0 24 24"
   version="1.1"
   id="svg44"
   sodipodi:docname="lc_autocontrolfocus.svg"
   inkscape:version="0.92.3 (unknown)"
   inkscape:export-filename="/home/rizmut/Dokumen/Rizmut/Github/libreoffice-style-elementary/images_elementary/cmd/lc_autocontrolfocus.png"
   inkscape:export-xdpi="96"
   inkscape:export-ydpi="96">
  <metadata
     id="metadata50">
    <rdf:RDF>
      <cc:Work
         rdf:about="">
        <dc:format>image/svg+xml</dc:format>
        <dc:type
           rdf:resource="http://purl.org/dc/dcmitype/StillImage" />
        <dc:title></dc:title>
      </cc:Work>
    </rdf:RDF>
  </metadata>
  <defs
     id="defs48">
    <radialGradient
       id="radialGradient2414"
       gradientUnits="userSpaceOnUse"
       cy="24.149"
       cx="17.813999"
       gradientTransform="matrix(-1.8804555,0,2.0885088e-8,1.8025519,40.342611,-39.354225)"
       r="9.125">
      <stop
         id="stop4847"
         style="stop-color:#fff"
         offset="0" />
      <stop
         id="stop4849"
         style="stop-color:#b6b6b6"
         offset="1" />
    </radialGradient>
  </defs>
  <sodipodi:namedview
     pagecolor="#ffffff"
     bordercolor="#666666"
     borderopacity="1"
     objecttolerance="10"
     gridtolerance="10"
     guidetolerance="10"
     inkscape:pageopacity="0"
     inkscape:pageshadow="2"
     inkscape:window-width="1366"
     inkscape:window-height="706"
     id="namedview46"
     showgrid="true"
     inkscape:zoom="13.906433"
     inkscape:cx="8.3751214"
     inkscape:cy="9.1081926"
     inkscape:window-x="0"
     inkscape:window-y="0"
     inkscape:window-maximized="1"
     inkscape:current-layer="svg44"
     inkscape:snap-global="false">
    <inkscape:grid
       type="xygrid"
       id="grid860" />
  </sodipodi:namedview>
  <clipPath
     id="a">
    <path
       d="m3.5 2s-.400507-.0028715-.78125.1875-.71875.4791667-.71875 1.3125v9s-.00287.400507.1875.78125c.1903715.380743.4791667.71875 1.3125.71875h9s .400507.0029.78125-.1875c.380743-.190372.71875-.479167.71875-1.3125v-9s .0029-.400507-.1875-.78125c-.190372-.380743-.479167-.71875-1.3125-.71875z"
       id="path2" />
  </clipPath>
  <linearGradient
     id="b"
     gradientTransform="matrix(.03934912 0 0 .0082353 -2.221895 17.980547)"
     gradientUnits="userSpaceOnUse"
     x1="302.85715"
     x2="302.85715"
     y1="366.64789"
     y2="609.50507">
    <stop
       offset="0"
       stop-opacity="0"
       id="stop5" />
    <stop
       offset=".5"
       id="stop7" />
    <stop
       offset="1"
       stop-opacity="0"
       id="stop9" />
  </linearGradient>
  <radialGradient
     id="c"
     cx="605.71429"
     cy="486.64789"
     gradientTransform="matrix(-.01204859 0 0 .0082353 9.761206 17.980564)"
     gradientUnits="userSpaceOnUse"
     r="117.14286"
     xlink:href="#d" />
  <linearGradient
     id="d">
    <stop
       offset="0"
       id="stop13" />
    <stop
       offset="1"
       stop-opacity="0"
       id="stop15" />
  </linearGradient>
  <radialGradient
     id="e"
     cx="605.71429"
     cy="486.64789"
     gradientTransform="matrix(.01204859 0 0 .0082353 14.238793 17.980564)"
     gradientUnits="userSpaceOnUse"
     r="117.14286"
     xlink:href="#d" />
  <linearGradient
     id="f"
     gradientTransform="matrix(.59999859 0 0 .36938167 -15.400006 -.431795)"
     gradientUnits="userSpaceOnUse"
     x1="9.466114"
     x2="9.449164"
     y1="4.838968"
     y2="24.161001">
    <stop
       offset="0"
       stop-color="#f4f4f4"
       id="stop19" />
    <stop
       offset="1"
       stop-color="#dbdbdb"
       id="stop21" />
  </linearGradient>
  <path
     inkscape:connector-curvature="0"
     id="path3970"
     style="fill:url(#radialGradient2414);fill-rule:evenodd;stroke:none;stroke-width:1;stroke-linejoin:round;stroke-miterlimit:4;stroke-dasharray:none"
     d="M 6.0437404,2.5532778 18.134757,14.28841 12.622743,14.466219 c 0,0 2.311451,4.80078 2.311451,4.80078 0.711236,2.133709 -2.489327,2.93375 -3.022688,1.333535 L 9.7777974,15.799755 5.8653331,19.978102 6.0434745,2.5521478 Z" />
  <path
     d="M 6.0437404,2.5532778 18.134757,14.28841 12.622743,14.466219 c 0,0 2.311451,4.80078 2.311451,4.80078 0.711236,2.133709 -2.489327,2.93375 -3.022688,1.333535 L 9.7777974,15.799755 5.8653331,19.978102 6.0434745,2.5521478 Z"
     style="fill:none;fill-rule:evenodd;stroke:#2a2a2a;stroke-width:1;stroke-linejoin:round;stroke-miterlimit:4;stroke-dasharray:none;stroke-opacity:1;opacity:0.61"
     id="path879"
     inkscape:connector-curvature="0" />
  <path
     inkscape:connector-curvature="0"
     id="path4853"
     style="opacity:0.4;fill:none;stroke:#ffffff;stroke-width:1.10051334;stroke-miterlimit:4;stroke-dasharray:none"
     d="M 7,5.0060811 15.766024,13.318616 10.932733,13.455644 14,19.404372 c 0.508157,0.89652 -0.883471,1.709692 -1.188852,0.897415 L 10.147131,14.204753 6.8794896,17.492199 7.0000732,5.0060811 Z"
     sodipodi:nodetypes="ccccccccc" />
</svg>

<?xml version="1.0" encoding="UTF-8" standalone="no"?>
<svg xmlns:rdf="http://www.w3.org/1999/02/22-rdf-syntax-ns#" xmlns="http://www.w3.org/2000/svg" version="1.1" xmlns:cc="http://creativecommons.org/ns#" xmlns:xlink="http://www.w3.org/1999/xlink" viewBox="0 0 24 24" xmlns:dc="http://purl.org/dc/elements/1.1/">
 <metadata>
  <rdf:RDF>
   <cc:Work rdf:about="">
    <dc:format>image/svg+xml</dc:format>
    <dc:type rdf:resource="http://purl.org/dc/dcmitype/StillImage"/>
    <dc:title/>
   </cc:Work>
  </rdf:RDF>
 </metadata>
 <defs>
  <radialGradient id="radialGradient2414" gradientUnits="userSpaceOnUse" cy="24.149" cx="17.814" gradientTransform="matrix(-1.8805 0 2.0885e-8 1.8026 40.343 -39.354)" r="9.125">
   <stop stop-color="#fff" offset="0"/>
   <stop stop-color="#b6b6b6" offset="1"/>
  </radialGradient>
 </defs>
 <clipPath id="a">
  <path d="m3.5 2s-0.40051-0.0028715-0.78125 0.1875-0.71875 0.47917-0.71875 1.3125v9s-0.00287 0.40051 0.1875 0.78125c0.19037 0.38074 0.47917 0.71875 1.3125 0.71875h9s0.40051 0.0029 0.78125-0.1875c0.38074-0.19037 0.71875-0.47917 0.71875-1.3125v-9s0.0029-0.40051-0.1875-0.78125c-0.19037-0.38074-0.47917-0.71875-1.3125-0.71875z"/>
 </clipPath>
 <path d="m6.0437 2.5533 12.091 11.735-5.512 0.178l2.3115 4.8008c0.71124 2.1337-2.4893 2.9338-3.0227 1.3335l-2.1342-4.8-3.9125 4.178 0.1782-17.426z" fill-rule="evenodd" fill="url(#radialGradient2414)"/>
 <path stroke-linejoin="round" opacity=".61" d="m6.0437 2.5533 12.091 11.735-5.512 0.178l2.3115 4.8008c0.71124 2.1337-2.4893 2.9338-3.0227 1.3335l-2.1342-4.8-3.9125 4.178 0.1782-17.426z" stroke="#2a2a2a" fill="none"/>
 <path opacity=".4" d="m7 5.0061 8.766 8.3129-4.833 0.137 3.067 5.948c0.50816 0.89652-0.88347 1.7097-1.1889 0.89742l-2.664-6.096-3.2675 3.287 0.1206-12.486z" stroke="#fff" stroke-width="1.1005" fill="none"/>
</svg>
